SVG_Azure_Grouped/Compute/Host.svg

<?xml version="1.0" encoding="UTF-8" standalone="no"?>
<!-- Generated by Microsoft Visio, SVG Export Host.svg Page-1 -->

<svg
   xmlns:dc="http://purl.org/dc/elements/1.1/"
   xmlns:cc="http://creativecommons.org/ns#"
   xmlns:rdf="http://www.w3.org/1999/02/22-rdf-syntax-ns#"
   xmlns:svg="http://www.w3.org/2000/svg"
   xmlns="http://www.w3.org/2000/svg"
   xmlns:xlink="http://www.w3.org/1999/xlink"
   xmlns:sodipodi="http://sodipodi.sourceforge.net/DTD/sodipodi-0.dtd"
   xmlns:inkscape="http://www.inkscape.org/namespaces/inkscape"
   width="0.78737104in"
   height="0.78738594in"
   viewBox="0 0 56.690713 56.691928"
   xml:space="preserve"
   class="st5"
   version="1.1"
   id="svg71"
   sodipodi:docname="Host.svg"
   style="font-size:12px;overflow:visible;color-interpolation-filters:sRGB;fill:none;fill-rule:evenodd;stroke-linecap:square;stroke-miterlimit:3"
   inkscape:version="0.92.5 (2060ec1f9f, 2020-04-08)"><metadata
   id="metadata75"><rdf:RDF><cc:Work
       rdf:about=""><dc:format>image/svg+xml</dc:format><dc:type
         rdf:resource="http://purl.org/dc/dcmitype/StillImage" /></cc:Work></rdf:RDF></metadata><sodipodi:namedview
   pagecolor="#ffffff"
   bordercolor="#666666"
   borderopacity="1"
   objecttolerance="10"
   gridtolerance="10"
   guidetolerance="10"
   inkscape:pageopacity="0"
   inkscape:pageshadow="2"
   inkscape:window-width="640"
   inkscape:window-height="480"
   id="namedview73"
   showgrid="false"
   inkscape:zoom="1.8365233"
   inkscape:cx="37.795826"
   inkscape:cy="18.897592"
   inkscape:window-x="0"
   inkscape:window-y="0"
   inkscape:window-maximized="0"
   inkscape:current-layer="svg71" />
	<style
   type="text/css"
   id="style2">
	<![CDATA[
		.st1 {fill:#32bedd;stroke:none;stroke-linecap:butt;stroke-width:0.75}
		.st2 {fill:url(#grad0-8);stroke:none;stroke-linecap:butt;stroke-width:0.75}
		.st3 {fill:#7fba00;stroke:none;stroke-linecap:butt;stroke-width:0.75}
		.st4 {fill:#b4ec36;stroke:none;stroke-linecap:butt;stroke-width:0.75}
		.st5 {fill:none;fill-rule:evenodd;font-size:12px;overflow:visible;stroke-linecap:square;stroke-miterlimit:3}
	]]>
	</style>

	<defs
   id="Patterns_And_Gradients">
		<linearGradient
   id="grad0-8"
   x1="0"
   y1="0"
   x2="1"
   y2="0"
   gradientTransform="rotate(-90,0.5,0.5)">
			<stop
   offset="0"
   stop-color="#198ab3"
   stop-opacity="1"
   id="stop4" />
			<stop
   offset="1"
   stop-color="#32d4f5"
   stop-opacity="1"
   id="stop6" />
		</linearGradient>
	<linearGradient
   inkscape:collect="always"
   xlink:href="#grad0-8"
   id="linearGradient4585"
   gradientTransform="scale(1.863209,0.53670843)"
   x1="-7.7039505e-07"
   y1="149.14988"
   x2="30.426203"
   y2="149.14988"
   gradientUnits="userSpaceOnUse" /><linearGradient
   inkscape:collect="always"
   xlink:href="#grad0-8"
   id="linearGradient4587"
   gradientTransform="scale(1.8616144,0.53716817)"
   x1="-0.00025847119"
   y1="149.07808"
   x2="30.344634"
   y2="149.07808"
   gradientUnits="userSpaceOnUse" /><linearGradient
   inkscape:collect="always"
   xlink:href="#grad0-8"
   id="linearGradient4589"
   gradientTransform="scale(1.0902349,0.91723357)"
   x1="0"
   y1="93.897207"
   x2="11.177371"
   y2="93.897207"
   gradientUnits="userSpaceOnUse" /></defs>
	<g
   id="g69"
   transform="translate(-5.6688961,-5.6703)">
		<title
   id="title10">Page-1</title>
		<g
   id="group11416-1"
   transform="translate(5.66929,-34.0157)">
			<title
   id="title12">Host.11416</title>
			<g
   id="group11417-2">
				<title
   id="title14">Sheet.11417</title>
				<g
   id="shape11418-3"
   transform="translate(26.0666,-7.77406)">
					<title
   id="title16">Sheet.11418</title>
					<rect
   x="0"
   y="63.787998"
   width="4.03508"
   height="32.589901"
   class="st1"
   id="rect18"
   style="fill:#32bedd;stroke:none;stroke-width:0.75;stroke-linecap:butt" />
				</g>
				<g
   id="shape11419-5"
   transform="translate(0,-40.364)">
					<title
   id="title21">Sheet.11419</title>
					<path
   d="M 54.39,80.05 H 2.26 A 2.34035,1.96898 -180 0 0 0,82.02 v 12.39 a 2.34035,1.96898 -180 0 0 2.3,1.97 h 52.09 a 2.3,1.93503 -180 0 0 2.3,-1.97 V 82.02 a 2.3,1.93503 -180 0 0 -2.3,-1.97 z"
   class="st2"
   id="path23"
   inkscape:connector-curvature="0"
   style="fill:url(#linearGradient4585);stroke:none;stroke-width:0.75;stroke-linecap:butt" />
				</g>
				<g
   id="shape11420-9"
   transform="translate(0,-18.2639)">
					<title
   id="title26">Sheet.11420</title>
					<path
   d="M 54.23,80.08 H 2.1 A 2.3,1.93503 -180 0 0 0,82.02 v 12.42 a 2.25965,1.90108 -180 0 0 2.3,1.94 h 51.93 a 2.3,1.93503 -180 0 0 2.26,-1.94 V 82.02 a 2.34035,1.96898 -180 0 0 -2.26,-1.94 z"
   class="st2"
   id="path28"
   inkscape:connector-curvature="0"
   style="fill:url(#linearGradient4587);stroke:none;stroke-width:0.75;stroke-linecap:butt" />
				</g>
				<g
   id="shape11421-12"
   transform="translate(22.3947)">
					<title
   id="title31">Sheet.11421</title>
					<ellipse
   cx="6.0929799"
   cy="91.251801"
   rx="6.0929799"
   ry="5.1261301"
   class="st3"
   id="ellipse33"
   style="fill:#7fba00;stroke:none;stroke-width:0.75;stroke-linecap:butt" />
				</g>
				<g
   id="shape11422-14"
   transform="translate(22.2333,-0.0339479)">
					<title
   id="title36">Sheet.11422</title>
					<ellipse
   cx="6.0929799"
   cy="91.251801"
   rx="6.0929799"
   ry="5.1261301"
   class="st2"
   id="ellipse38"
   style="fill:url(#linearGradient4589);stroke:none;stroke-width:0.75;stroke-linecap:butt" />
				</g>
				<g
   id="group11423-17"
   transform="translate(47.2912,-43.9285)">
					<title
   id="title41">Sheet.11423</title>
					<g
   id="shape11424-18"
   transform="translate(0,-6.14456)">
						<title
   id="title43">Sheet.11424</title>
						<path
   d="m 0,95.87 a 0.605276,0.50923 -180 0 0 0.605262,0.509218 L 3.63,96.38 A 0.605276,0.50923 -180 0 0 4.235262,95.870782 L 4.24,93.32 A 0.605276,0.50923 -180 0 0 3.634738,92.810782 L 0.61,92.81 a 0.605276,0.50923 -180 0 0 -0.605262,0.509218 z"
   class="st4"
   id="path45"
   inkscape:connector-curvature="0"
   style="fill:#b4ec36;stroke:none;stroke-width:0.75;stroke-linecap:butt" />
					</g>
					<g
   id="shape11425-20">
						<title
   id="title48">Sheet.11425</title>
						<path
   d="m 0,95.87 a 0.605276,0.50923 -180 0 0 0.605262,0.509218 L 3.63,96.38 A 0.605276,0.50923 -180 0 0 4.235262,95.870782 L 4.24,93.32 A 0.605276,0.50923 -180 0 0 3.634738,92.810782 L 0.61,92.81 a 0.605276,0.50923 -180 0 0 -0.605262,0.509218 z"
   class="st4"
   id="path50"
   inkscape:connector-curvature="0"
   style="fill:#b4ec36;stroke:none;stroke-width:0.75;stroke-linecap:butt" />
					</g>
				</g>
				<g
   id="group11426-22"
   transform="translate(47.2912,-21.8964)">
					<title
   id="title54">Sheet.11426</title>
					<g
   id="shape11427-23"
   transform="translate(0,-6.14456)">
						<title
   id="title56">Sheet.11427</title>
						<path
   d="m 0,95.87 a 0.605276,0.50923 -180 0 0 0.605262,0.509218 L 3.63,96.38 A 0.605276,0.50923 -180 0 0 4.235262,95.870782 L 4.24,93.32 A 0.605276,0.50923 -180 0 0 3.634738,92.810782 L 0.61,92.81 a 0.605276,0.50923 -180 0 0 -0.605262,0.509218 z"
   class="st4"
   id="path58"
   inkscape:connector-curvature="0"
   style="fill:#b4ec36;stroke:none;stroke-width:0.75;stroke-linecap:butt" />
					</g>
					<g
   id="shape11428-25">
						<title
   id="title61">Sheet.11428</title>
						<path
   d="m 0,95.87 a 0.605276,0.50923 -180 0 0 0.605262,0.509218 L 3.63,96.38 A 0.605276,0.50923 -180 0 0 4.235262,95.870782 L 4.24,93.32 A 0.605276,0.50923 -180 0 0 3.634738,92.810782 L 0.61,92.81 a 0.605276,0.50923 -180 0 0 -0.605262,0.509218 z"
   class="st4"
   id="path63"
   inkscape:connector-curvature="0"
   style="fill:#b4ec36;stroke:none;stroke-width:0.75;stroke-linecap:butt" />
					</g>
				</g>
			</g>
		</g>
	</g>
</svg>

<?xml version="1.0" encoding="UTF-8" standalone="no"?>
<!DOCTYPE svg PUBLIC "-//W3C//DTD SVG 1.1//EN" "http://www.w3.org/Graphics/SVG/1.1/DTD/svg11.dtd">
<!-- Generated by Microsoft Visio, SVG Export Host.svg Page-1 -->
<svg xmlns="http://www.w3.org/2000/svg" xmlns:xlink="http://www.w3.org/1999/xlink" xmlns:ev="http://www.w3.org/2001/xml-events"
		width="0.944882in" height="1.33858in" viewBox="0 0 68.0315 96.378" xml:space="preserve" color-interpolation-filters="sRGB"
		class="st5">
	<style type="text/css">
	<![CDATA[
		.st1 {fill:#32bedd;stroke:none;stroke-linecap:butt;stroke-width:0.75}
		.st2 {fill:url(#grad0-8);stroke:none;stroke-linecap:butt;stroke-width:0.75}
		.st3 {fill:#7fba00;stroke:none;stroke-linecap:butt;stroke-width:0.75}
		.st4 {fill:#b4ec36;stroke:none;stroke-linecap:butt;stroke-width:0.75}
		.st5 {fill:none;fill-rule:evenodd;font-size:12px;overflow:visible;stroke-linecap:square;stroke-miterlimit:3}
	]]>
	</style>

	<defs id="Patterns_And_Gradients">
		<linearGradient id="grad0-8" x1="0" y1="0" x2="1" y2="0" gradientTransform="rotate(-90 0.5 0.5)">
			<stop offset="0" stop-color="#198ab3" stop-opacity="1"/>
			<stop offset="1" stop-color="#32d4f5" stop-opacity="1"/>
		</linearGradient>
	</defs>
	<g>
		<title>Page-1</title>
		<g id="group11137-1" transform="translate(5.66929,-34.0157)">
			<title>Host.11137</title>
			<g id="group11138-2">
				<title>Sheet.11138</title>
				<g id="shape11139-3" transform="translate(26.0666,-7.77406)">
					<title>Sheet.11139</title>
					<rect x="0" y="63.788" width="4.03508" height="32.5899" class="st1"/>
				</g>
				<g id="shape11140-5" transform="translate(0,-40.364)">
					<title>Sheet.11140</title>
					<path d="M54.39 80.05 L2.26 80.05 A2.34035 1.96898 -180 0 0 -0 82.02 L0 94.41 A2.34035 1.96898 -180 0 0 2.3 96.38
								 L54.39 96.38 A2.3 1.93503 -180 0 0 56.69 94.41 L56.69 82.02 A2.3 1.93503 -180 0 0 54.39 80.05 Z"
							class="st2"/>
				</g>
				<g id="shape11141-9" transform="translate(2.83773E-13,-18.2639)">
					<title>Sheet.11141</title>
					<path d="M54.23 80.08 L2.1 80.08 A2.3 1.93503 -180 0 0 0 82.02 L0 94.44 A2.25965 1.90108 -180 0 0 2.3 96.38 L54.23
								 96.38 A2.3 1.93503 -180 0 0 56.49 94.44 L56.49 82.02 A2.34035 1.96898 -180 0 0 54.23 80.08 Z"
							class="st2"/>
				</g>
				<g id="shape11142-12" transform="translate(22.3947,-1.13687E-13)">
					<title>Sheet.11142</title>
					<ellipse cx="6.09298" cy="91.2518" rx="6.09298" ry="5.12613" class="st3"/>
				</g>
				<g id="shape11143-14" transform="translate(22.2333,-0.0339479)">
					<title>Sheet.11143</title>
					<ellipse cx="6.09298" cy="91.2518" rx="6.09298" ry="5.12613" class="st2"/>
				</g>
				<g id="group11144-17" transform="translate(47.2912,-43.9285)">
					<title>Sheet.11144</title>
					<g id="shape11145-18" transform="translate(0,-6.14456)">
						<title>Sheet.11145</title>
						<path d="M0 95.87 a0.605276 0.50923 -180 0 0 0.605262 0.509218 L3.63 96.38 a0.605276 0.50923 -180 0 0 0.605262
									 -0.509218 L4.24 93.32 a0.605276 0.50923 -180 0 0 -0.605262 -0.509218 L0.61 92.81 a0.605276 0.50923
									 -180 0 0 -0.605262 0.509218 L0 95.87 Z" class="st4"/>
					</g>
					<g id="shape11146-20">
						<title>Sheet.11146</title>
						<path d="M0 95.87 a0.605276 0.50923 -180 0 0 0.605262 0.509218 L3.63 96.38 a0.605276 0.50923 -180 0 0 0.605262
									 -0.509218 L4.24 93.32 a0.605276 0.50923 -180 0 0 -0.605262 -0.509218 L0.61 92.81 a0.605276 0.50923
									 -180 0 0 -0.605262 0.509218 L0 95.87 Z" class="st4"/>
					</g>
				</g>
				<g id="group11147-22" transform="translate(47.2912,-21.8964)">
					<title>Sheet.11147</title>
					<g id="shape11148-23" transform="translate(0,-6.14456)">
						<title>Sheet.11148</title>
						<path d="M0 95.87 a0.605276 0.50923 -180 0 0 0.605262 0.509218 L3.63 96.38 a0.605276 0.50923 -180 0 0 0.605262
									 -0.509218 L4.24 93.32 a0.605276 0.50923 -180 0 0 -0.605262 -0.509218 L0.61 92.81 a0.605276 0.50923
									 -180 0 0 -0.605262 0.509218 L0 95.87 Z" class="st4"/>
					</g>
					<g id="shape11149-25">
						<title>Sheet.11149</title>
						<path d="M0 95.87 a0.605276 0.50923 -180 0 0 0.605262 0.509218 L3.63 96.38 a0.605276 0.50923 -180 0 0 0.605262
									 -0.509218 L4.24 93.32 a0.605276 0.50923 -180 0 0 -0.605262 -0.509218 L0.61 92.81 a0.605276 0.50923
									 -180 0 0 -0.605262 0.509218 L0 95.87 Z" class="st4"/>
					</g>
				</g>
			</g>
		</g>
	</g>
</svg>
